X: 28918
T: Na Deora Mora
R: slip jig
M: 9/8
K: Aminor
|:c|BAG AEE A2c|B3 e3 dcB|A2c BAG AEE|e3 dcB A2:|
|:a|ged cAG A2 a|age ged cAG|A2 a ged cAG|e3 dcB A2:|

